icons/airpods-alt.svg

<svg width="24" height="24" viewBox="0 0 24 24" fill="none" xmlns="http://www.w3.org/2000/svg">
<path fill-rule="evenodd" clip-rule="evenodd" d="M8.05005 2.1001C5.43584 2.1001 3.30005 4.23588 3.30005 6.8501C3.30005 7.74636 3.55051 8.55409 3.96714 9.26583C3.89994 9.55833 3.89998 9.79559 3.90003 10.032L3.90003 10.0501V10.0875L4.50376 16.1248C4.64272 17.5144 5.87103 18.6001 7.25004 18.6001C8.62905 18.6001 9.85739 17.5144 9.99635 16.1248L10.4608 10.9231C11.8122 10.125 12.8 8.59289 12.8 6.8501C12.8 4.23588 10.6643 2.1001 8.05005 2.1001ZM10.019 9.41414C10.7724 8.8328 11.3 7.88911 11.3 6.8501C11.3 5.06431 9.83584 3.6001 8.05005 3.6001C6.26426 3.6001 4.80005 5.06431 4.80005 6.8501C4.80005 7.57248 5.038 8.22288 5.46037 8.81419L5.39408 8.86154C5.94786 9.62208 6.89506 10.1001 7.95005 10.1001C8.58922 10.1001 9.03163 10.0066 9.36416 9.80704L10.019 9.41414ZM5.99631 15.9755L5.4921 10.9334C6.21812 11.3655 7.06938 11.6001 7.95005 11.6001C8.26963 11.6001 8.58864 11.5814 8.90064 11.5299L8.50341 15.979C8.44056 16.5878 7.86985 17.1001 7.25004 17.1001C6.62905 17.1001 6.05735 16.5859 5.99631 15.9755ZM13.2001 12.8501C13.2001 10.7359 14.8359 9.1001 16.9501 9.1001C19.0643 9.1001 20.7001 10.7359 20.7001 12.8501C20.7001 13.5615 20.5279 14.2146 20.1714 14.7862C20.2009 14.9638 20.2004 15.1179 20.2001 15.222L20.2001 15.2501V15.2834L19.7959 19.8299L19.7943 19.8431C19.6537 20.9674 18.7776 21.9001 17.5501 21.9001C16.3225 21.9001 15.4464 20.9674 15.3058 19.8431L15.3045 19.8322L14.9402 16.0074C13.9086 15.3418 13.2001 14.2014 13.2001 12.8501ZM15.9801 14.8766L15.9855 14.8793C16.2696 15.0213 16.6526 15.1001 16.9501 15.1001C17.7074 15.1001 18.3803 14.7175 18.7398 14.2142L18.901 13.9885C19.0965 13.6731 19.2001 13.3011 19.2001 12.8501C19.2001 11.5643 18.2359 10.6001 16.9501 10.6001C15.6643 10.6001 14.7001 11.5643 14.7001 12.8501C14.7001 13.7387 15.2138 14.4911 15.9801 14.8766ZM16.9501 16.6001C17.5437 16.6001 18.111 16.4592 18.6114 16.2143L18.3043 19.6688C18.2411 20.1372 17.9194 20.4001 17.5501 20.4001C17.1801 20.4001 16.8581 20.1365 16.7955 19.6667L16.5006 16.5706C16.6564 16.5904 16.8078 16.6001 16.9501 16.6001Z" fill="black"/>
</svg>

<svg xmlns="http://www.w3.org/2000/svg" fill="none" viewBox="0 0 24 24">
  <path fill="#000" fill-rule="evenodd" d="M8.05 2.1A4.762 4.762 0 0 0 3.3 6.85c0 .896.25 1.704.667 2.416-.067.292-.067.53-.067.766v.055l.604 6.038C4.643 17.515 5.87 18.6 7.25 18.6s2.607-1.086 2.746-2.475l.465-5.202c1.351-.798 2.339-2.33 2.339-4.073A4.762 4.762 0 0 0 8.05 2.1Zm1.969 7.314C10.772 8.833 11.3 7.89 11.3 6.85A3.262 3.262 0 0 0 8.05 3.6 3.262 3.262 0 0 0 4.8 6.85c0 .722.238 1.373.66 1.964l-.066.048c.554.76 1.501 1.238 2.556 1.238.64 0 1.082-.093 1.414-.293l.655-.393Zm-4.023 6.562-.504-5.043a4.81 4.81 0 0 0 2.458.667c.32 0 .639-.019.95-.07l-.397 4.449c-.062.609-.633 1.121-1.253 1.121-.62 0-1.193-.514-1.254-1.125ZM13.2 12.85c0-2.114 1.636-3.75 3.75-3.75s3.75 1.636 3.75 3.75c0 .712-.172 1.365-.529 1.936.03.178.03.332.03.436v.061l-.405 4.547-.002.013c-.14 1.124-1.016 2.057-2.244 2.057-1.227 0-2.104-.933-2.244-2.057l-.001-.01-.365-3.826c-1.031-.665-1.74-1.806-1.74-3.157Zm2.78 2.027.005.002c.285.142.668.221.965.221.757 0 1.43-.383 1.79-.886l.161-.226c.195-.315.3-.687.3-1.138 0-1.286-.965-2.25-2.25-2.25-1.287 0-2.25.964-2.25 2.25 0 .889.513 1.641 1.28 2.027Zm.97 1.723c.594 0 1.161-.14 1.661-.386l-.307 3.455c-.063.468-.385.731-.754.731-.37 0-.692-.263-.755-.733l-.294-3.096c.155.02.307.03.45.03Z" clip-rule="evenodd"/>
</svg>
